X: 662
M: C
L: 1/8
K: G
V: 1
g |\
(B/c/d) BG TB>AAa | (e/f/g) d>B d2-d :|
|: g |\
e>gd>g TB>AAa | (e/f/g) d>B d>eg>a | (b/a/g/f/ g)>B TB>AAa | (e/f/g) d>B d2-d :|
V: 2 clef=bass middle=d
z |\
g2g2 a2a2 | g2g2 g2g2 |\
g2g2 a2a2 | g2d2 G2G :|\
|: z |
g2g2 a2a2 | g2g2 g2g2 |\
g2g2 a2a2 | g2d2 G2G :|

